X:124
T:Holy, Holy, Holy
%%stretchlast false
M:4/4
L:1/4
K:C clef=C1
"^I"[C,E,G,C] [C,E,G,C] "^vi"[A,,C,CE] [A,,C,CE] | "^V"[G,,D,B,G] [G,,F,DG] "^I"[C,E,CG] [C,G,B,G] | "^IV"[F,,F,A,A] "^V"[F,,G,B,A] "^IV"[F,A,CA] "^viiø7²"[F,B,DA] | "^I"[C,CEG] [C,G,EG] [C,G,CE]2 | "^V¹"[B,,G,DG] [B,,G,DG]/ [B,,G,DG]/ "^I"[C,G,EG] "^V¹"[B,,G,DG] | "^vi"[A,,E,Cc] "^II7²"[A,,^F,Dc] "^V¹"[B,,G,DB] "^I"[C,G,EG] | "^vii¹"[D,B,D] "^V²"[D,G,B,G] "^II7"[D,^F,CA]3/2 "^V"[G,,G,B,G]/ | [G,,G,B,G]2 "^V7"[G,,F,B,G]2 | "^I"[C,E,G,C] [C,E,G,C] "^vi"[A,,C,CE] [A,,C,CE] | "^V"[G,,D,B,G] [G,,F,DG] "^I"[C,E,CG] [C,G,B,G] | "^IV"[F,,F,A,A] "^V"[F,,G,B,A]/ [F,,G,B,A]/ "^IV"[F,A,CA] "^viiø7²"[F,B,DA] | "^I"[C,CEG] [C,G,EG] [C,E,CG]2 | "^vi"[A,,E,Cc] "^IV¹"[A,,F,Cc] "^I¹"[E,,G,CG] "^V/IV¹"[E,,^A,CG] | "^IV"[F,,A,CA]2 "^I"[C,G,CE] "^V/IV"[C,G,^A,E] | "^IV"[F,,F,A,F] "^ii¹"[F,,F,A,D] "^V7"[G,,F,B,D]3/2 "^I"[C,E,C]/ | [C,E,C]4 |]
